src/assets/icons/gift.svg

<?xml version="1.0" encoding="UTF-8"?>
<svg width="24px" height="24px" viewBox="0 0 24 24" version="1.1" xmlns="http://www.w3.org/2000/svg" xmlns:xlink="http://www.w3.org/1999/xlink">
    <title>形状结合</title>
    <g id="扩展程序" stroke="none" stroke-width="1" fill="none" fill-rule="evenodd" opacity="0.5">
        <g id="NFT-有" transform="translate(-267.000000, -97.000000)" fill="#6E7585" fill-rule="nonzero">
            <g id="编组" transform="translate(257.000000, 89.000000)">
                <g id="形状结合-2" transform="translate(10.000000, 8.000000)">
                    <path d="M8.87867966,1.46446609 L11.414,3.99957288 L12.585,3.99957288 L15.1213203,1.46446609 C15.5118446,1.0739418 16.1450096,1.0739418 16.5355339,1.46446609 C16.9260582,1.85499039 16.9260582,2.48815536 16.5355339,2.87867966 L15.414,3.99957288 L20,4 C21.6568542,4 23,5.34314575 23,7 L23,9 C23,9.88807388 22.6141196,10.6860206 22.0008825,11.2353163 L22,19 C22,20.6568542 20.6568542,22 19,22 L5,22 C3.34314575,22 2,20.6568542 2,19 L2.00009834,11.2361945 C1.3862919,10.6868712 1,9.88854726 1,9 L1,7 C1,5.34314575 2.34314575,4 4,4 L8.585,3.99957288 L7.46446609,2.87867966 C7.0739418,2.48815536 7.0739418,1.85499039 7.46446609,1.46446609 C7.85499039,1.0739418 8.48815536,1.0739418 8.87867966,1.46446609 Z M20,12 L13,11.9995729 L13,15 C13,15.5522847 12.5522847,16 12,16 C11.4477153,16 11,15.5522847 11,15 L11,11.9995729 L4,12 L4,19 C4,19.5128358 4.38604019,19.9355072 4.88337887,19.9932723 L5,20 L19,20 C19.5128358,20 19.9355072,19.6139598 19.9932723,19.1166211 L20,19 L20,12 L20,12 Z M20,6 L4,6 C3.48716416,6 3.06449284,6.38604019 3.00672773,6.88337887 L3,7 L3,9 C3,9.51283584 3.38604019,9.93550716 3.88337887,9.99327227 L4,10 L11,9.99957288 L11,9 C11,8.44771525 11.4477153,8 12,8 C12.5522847,8 13,8.44771525 13,9 L13,9.99957288 L20,10 C20.5128358,10 20.9355072,9.61395981 20.9932723,9.11662113 L21,9 L21,7 C21,6.44771525 20.5522847,6 20,6 Z" id="形状结合"></path>
                </g>
            </g>
        </g>
    </g>
</svg>

<svg width="24" height="24" xmlns="http://www.w3.org/2000/svg"><path d="M8.879 1.464 11.414 4h1.171l2.536-2.536a1 1 0 0 1 1.415 1.415l-1.122 1.12L20 4a3 3 0 0 1 3 3v2c0 .888-.386 1.686-1 2.235V19a3 3 0 0 1-3 3H5a3 3 0 0 1-3-3v-7.764C1.386 10.686 1 9.89 1 9V7a3 3 0 0 1 3-3h4.585l-1.12-1.121a1 1 0 0 1 1.414-1.415zM20 12h-7v3a1 1 0 0 1-2 0v-3H4v7a1 1 0 0 0 .883.993L5 20h14a1 1 0 0 0 .993-.883L20 19v-7zm0-6H4a1 1 0 0 0-.993.883L3 7v2a1 1 0 0 0 .883.993L4 10h7V9a1 1 0 0 1 2 0v1h7a1 1 0 0 0 .993-.883L21 9V7a1 1 0 0 0-1-1z" fill="#6E7585" fill-rule="nonzero" opacity=".5"/></svg>
